monitor-multiple.svg

<svg fill="currentColor" viewBox="0 0 24 24"><path d="M22 17V7H6v10zm0-12a2 2 0 0 1 2 2v10a2 2 0 0 1-2 2h-6v2h2v2h-8v-2h2v-2H6c-1.11 0-2-.89-2-2V7a2 2 0 0 1 2-2zM2 3v12H0V3a2 2 0 0 1 2-2h18v2z"/></svg>

<svg  viewBox="0 0 24 24" fill="currentColor"><path  d="M22,17V7H6V17H22M22,5A2,2 0 0,1 24,7V17C24,18.11 23.1,19 22,19H16V21H18V23H10V21H12V19H6C4.89,19 4,18.11 4,17V7A2,2 0 0,1 6,5H22M2,3V15H0V3A2,2 0 0,1 2,1H20V3H2Z"/></svg>
